X: 1
T: Billy In The Lowground
M: 4/4
L: 1/8
R: reel
K: Cmaj
CA,|:&quot;C&quot;G,A,CD EGAB|cBcd cAGc|&quot;Am&quot;ABAG EGAB|cAGE DCCA,|
&quot;C&quot;G,A,CD EGAB|cBcd cAGB|&quot;Am&quot;ABAG EGAB|&quot;G&quot;cAGE DC C2:|
&quot;C&quot;eg2eg2 eg|afed cAG2|&quot;Am&quot;ea2ga2 eg|agab ag e2|
&quot;C&quot;eg2eg2 eg|aged cAGB|&quot;Am&quot;ABAG EGAB|&quot;G&quot;cAGE &quot;C&quot;DC C2|]
